X:2
T:Mirseil Alasdruim
L:1/8
M:6/8
S:Breathnach (Manand His Music, 1997)
S:AIKUNTZ@aol.com scots-l 2001-11-21
K:G
c|ABG AGF|G2g fdc|ABG AGF|Ggf d2c|
ABG AGF|Ggg fdc|ABB cBc|dgf d2c:|
|:Aff Agg|age fdc|Aff Agg|age (3dedc|
Aff Agg|bag fde|fef g3|age d2:|
